packages/ffe-icons/icons/open/300/sm/screenshot_keyboard.svg

<svg xmlns="http://www.w3.org/2000/svg" height="20" viewBox="0 -960 960 960" width="20"><path d="M479.788-397.999q-34.019 0-57.904-24.097-23.885-24.098-23.885-58.116 0-34.019 24.097-57.904 24.098-23.885 58.116-23.885 34.019 0 57.904 24.097 23.885 24.098 23.885 58.116 0 34.019-24.097 57.904-24.098 23.885-58.116 23.885Zm.212 51.998q56.154 0 95.076-38.923 38.923-38.922 38.923-95.076 0-56.154-38.923-95.076-38.922-38.923-95.076-38.923-56.154 0-95.076 38.923-38.923 38.922-38.923 95.076 0 56.154 38.923 95.076 38.922 38.923 95.076 38.923Zm-299.691 134q-27.008 0-45.658-18.662-18.65-18.662-18.65-45.686v-407.626q0-27.024 18.65-45.524t45.658-18.5h599.382q27.008 0 45.658 18.662 18.65 18.662 18.65 45.686v407.626q0 27.024-18.65 45.524t-45.658 18.5H180.309Zm0-51.999h599.382q4.616 0 8.463-3.846 3.846-3.847 3.846-8.463v-407.382q0-4.616-3.846-8.463-3.847-3.846-8.463-3.846H180.309q-4.616 0-8.463 3.846-3.846 3.847-3.846 8.463v407.382q0 4.616 3.846 8.463 3.847 3.846 8.463 3.846ZM168-264V-696-264Z"/></svg>

<svg xmlns="http://www.w3.org/2000/svg" height="20" viewBox="0 -960 960 960" width="20"><path d="M479.79-398q-34.02 0-57.91-24.1Q398-446.19 398-480.21q0-34.02 24.1-57.91Q446.19-562 480.21-562q34.02 0 57.91 24.1Q562-513.81 562-479.79q0 34.02-24.1 57.91Q513.81-398 479.79-398Zm.21 52q56.15 0 95.08-38.92Q614-423.85 614-480t-38.92-95.08Q536.15-614 480-614t-95.08 38.92Q346-536.15 346-480t38.92 95.08Q423.85-346 480-346ZM180.31-212q-27.01 0-45.66-18.66Q116-249.32 116-276.35v-407.62q0-27.03 18.65-45.53t45.66-18.5h599.38q27.01 0 45.66 18.66Q844-710.68 844-683.65v407.62q0 27.03-18.65 45.53T779.69-212H180.31Zm0-52h599.38q4.62 0 8.46-3.85 3.85-3.84 3.85-8.46v-407.38q0-4.62-3.85-8.46-3.84-3.85-8.46-3.85H180.31q-4.62 0-8.46 3.85-3.85 3.84-3.85 8.46v407.38q0 4.62 3.85 8.46 3.84 3.85 8.46 3.85ZM168-264v-432 432Z"/></svg>
